!!!OTL: TRARIRO DER SOMMER DER IST DO
!!!ARE: Europa, Mitteleuropa, Deutschland
!!!SCT: E1219A
!!!YEM: Copyright 1995, estate of Helmut Schaffrath.
**kern
*ICvox
*Ivox
*M2/4
*k[b-]
*F:
=1
{4f
4a
=2
4.cc}
{16a
16f
=3
8c
16f
16g
8a
8g
=4
4f
8r}
{8c
=5
8g
8g
8g
8g
=6
4a
8f}
{8c
=7
8g
8g
8g
8g
=8
4a
8f
8r}
=9
{4f
4a
=10
4.cc}
{16a
16f
=11
8c
16f
16g
8a
8g
=12
4f
4r}
==
!!!AGN: Ansinge -, Brauchtums - Lied, Kirchen - Fest, Sommer - Tags - Lied
!!!ONB: ESAC (Essen Associative Code) Database: ERK3
!!!AMT: simple duple
!!!AIN: vox
!!!EED: Helmut Schaffrath
!!!EEV: 1.0
*-
